!!!COA:	Josquin des Prez
!!!CDT:	~1450-1521/08/27
!!!OTL@@LAT: Responsum acceperat Simeon
!!!OTL2@@LAT: Cum ergo
!!!OTL3@@LAT: Nunc dimittis
!!!AGN:	Motet
!!!SCT:	NJE 20.11
!!!SCA:	New Josquin Edition 20.11
!!!voices:	6
**kern	**kern	**kern	**kern	**kern	**kern
*staff6	*staff5	*staff4	*staff3	*staff2	*staff1
*Ivox	*Ivox	*Ivox	*Ivox	*Ivox	*Ivox
*I"Bassus	*I"Vagans	*I"Tenor	*I"Altus2	*I"Altus1	*I"Superius
*I'B	*I'V	*I'T	*I'A2	*I'A1	*I'S
*>[A,B]	*>[A,B]	*>[A,B]	*>[A,B]	*>[A,B]	*>[A,B]
*>Part1[A]	*>Part1[A]	*>Part1[A]	*>Part1[A]	*>Part1[A]	*>Part1[A]
*>Part2[B]	*>Part2[B]	*>Part2[B]	*>Part2[B]	*>Part2[B]	*>Part2[B]
*>A	*>A	*>A	*>A	*>A	*>A
*clefF4	*clefF4	*clefGv2	*clefGv2	*clefGv2	*clefG2
*k[b-]	*k[b-]	*k[b-]	*k[b-]	*k[b-]	*k[b-]
*M2/1	*M2/1	*M2/1	*M2/1	*M2/1	*M2/1
*met(C|)	*met(C|)	*met(C|)	*met(C|)	*met(C|)	*met(C|)
=1-	=1-	=1-	=1-	=1-	=1-
!	!	!LO:TX:Z=6:X=-50:t=Canon at the upper fifth	!	!	!
0r	1D	0r	0r	0r	0r
.	1F	.	.	.	.
=2	=2	=2	=2	=2	=2
1GG	1G	0r	0r	0r	0r
1BB-	1F	.	.	.	.
=3	=3	=3	=3	=3	=3
1C	2r	0r	0r	1G	0r
.	2E\	.	.	.	.
1BB-	2.F\	.	.	1B-	.
.	4G\	.	.	.	.
=4	=4	=4	=4	=4	=4
2r	2.A\	0r	0r	1c	1r
2AA/	.	.	.	.	.
.	4G\	.	.	.	.
2.BB-/	4F\	.	.	1B-	1d
.	4E\	.	.	.	.
.	2G\	.	.	.	.
4C/	.	.	.	.	.
=5	=5	=5	=5	=5	=5
2D\	2F\	0r	0r	2r	1f
2F\	2D\	.	.	2A/	.
2.E-\	2r	.	.	2.B-\	1g
.	2G\	.	.	.	.
4D\	.	.	.	4c\	.
=6	=6	=6	=6	=6	=6
1BB-	1B-	1D	0r	2d\	0f
.	.	.	.	1B-	.
1r	1c	1F	.	.	.
.	.	.	.	2A/	.
=7	=7	=7	=7	=7	=7
2r	2B-\	1G	1r	2B-\	2r
2C/	2G\	.	.	2c\	2e/
2.D\	4D\	1F	1A	2A/	2.f/
.	4E\	.	.	.	.
.	4F\	.	.	2d\	.
4C/	4D\	.	.	.	4g/
=8	=8	=8	=8	=8	=8
2AA/	2E\	2r	1c	2c\	2a/
2C/	2E\	2E/	.	2A/	2a/
2.BB-/	2D\	2.F/	1d	1B-	2dd\
.	2D\	.	.	.	2b-\
4AA/	.	4G/	.	.	.
=9	=9	=9	=9	=9	=9
2FF/	1F	4A/	1c	1A	2cc\
.	.	4B-\	.	.	.
2AA/	.	2.c\	.	.	4b-\
.	.	.	.	.	4a/
1GG	1G	.	2r	2r	2.b-\
.	.	4B-\	.	.	.
.	.	2G/	2B-\	2D/	.
.	.	.	.	.	4cc\
=10	=10	=10	=10	=10	=10
4FF/	2C/	1A	2.c\	2F/	2a/
4GG/	.	.	.	.	.
4AA/	2F\	.	.	2.C/	2cc\
4BB-/	.	.	4d\	.	.
2.C/	2.E\	1G	4e\	.	[1cc
.	.	.	4f\	4D/	.
.	.	.	[2g\	4E/	.
4D\	4D\	.	.	4F/	.
=11	=11	=11	=11	=11	=11
2E\	2C/	2r	4g\]	4G/	2cc\]
.	.	.	4f\	4A/	.
2D\	2D\	2F/	2d\	1B-	2f/
1C	2G\	2G/	1e	.	1cc
.	2A\	2E/	.	2A/	.
=12	=12	=12	=12	=12	=12
2.BB-/	2D\	1.F	1d	2.B-\	2.dd\
.	2.F\	.	.	.	.
4AA/	.	.	.	4c\	4cc\
2BB-/	.	.	2r	2d\	4b-\
.	4D\	.	.	.	4a/
2C/	2E\	2E/	2c\	[2G/	[2g/
=13	=13	=13	=13	=13	=13
1GG	2.G\	1D	2d\	4G/]	4g/]
.	.	.	.	4A/	4f/
.	.	.	2B-\	2B-\	2d/
.	4F\	.	.	.	.
2r	2E\	2C/	[1c	2G/	2e/
2FF/	[2A\	[2F/	.	4A/	2f/
.	.	.	.	4B-\	.
=14	=14	=14	=14	=14	=14
2AA/	2A\]	2F/]	2c\]	4c\	2c/
.	.	.	.	4A/	.
2GG/	2B-\	2.G/	2B-\	2d\	4g/
.	.	.	.	.	4f/
2.AA/	1c	.	1A	2c\	4e/
.	.	4F/	.	.	4d/
.	.	[2F/	.	2C/	2c/
4BB-/	.	.	.	.	.
=15	=15	=15	=15	=15	=15
1C	2r	2F/]	2G/	2r	2.cc\
.	2G\	2E/	1c	2C/	.
.	.	.	.	.	4b-\
2r	2A\	2F/	.	2F/	4a/
.	.	.	.	.	4g/
[2BB-/	2F\	2F/	[2d\	2D/	[2b-\
=16	=16	=16	=16	=16	=16
2BB-/]	2G\	2D/	4d\]	2.G/	4b-\]
.	.	.	4c\	.	4a/
2C/	2E\	2E/	1c	.	2.g/
.	.	.	.	4A/	.
1D	4D\	1F	.	4B-\	.
.	4E\	.	.	4c\	4f/
.	4F\	.	2B-\	2d\	[2f/
.	4D\	.	.	.	.
=17	=17	=17	=17	=17	=17
1C	2E\	1G	2c\	2G/	2f/]
.	2C/	.	2c\	2.c\	2e/
1r	1D	[1F	2A/	.	[1f
.	.	.	.	4B-\	.
.	.	.	2B-\	[2B-\	.
=18	=18	=18	=18	=18	=18
1FF	2C/	1F]	1c	2B-\]	1f]
.	2F\	.	.	2A/	.
2BB-/	2.D\	1r	1d	2B-\	2r
2BB-/	.	.	.	2F/	2f/
.	4E\	.	.	.	.
=19	=19	=19	=19	=19	=19
1FF	2F\	1F	0c	2.A/	2.f/
.	2.A\	.	.	.	.
.	.	.	.	4B-\	4f/
1FF	.	2.A/	.	2c\	2f/
.	4B-\	.	.	.	.
.	[2c\	.	.	2A/	2f/
.	.	4B-\	.	.	.
=20	=20	=20	=20	=20	=20
1C	2c\]	2c\	1r	2G/	2.e/
.	2C/	2A/	.	2.E/	.
.	.	.	.	.	4f/
2r	2.E\	1G	1c	.	1g
.	.	.	.	4F/	.
2C/	.	.	.	2G/	.
.	4F\	.	.	.	.
=21	=21	=21	=21	=21	=21
2.C/	1G	2r	2.e-i\	2C/	2r
.	.	2G/	.	2.E-/	2cc\
4D\	.	.	4f\	.	.
2E-i\	1C	2.G/	2g\	.	2cc\
.	.	.	.	4F/	.
2C/	.	.	2e-i\	4G/	2cc\
.	.	4A/	.	4E-i/	.
=22	=22	=22	=22	=22	=22
0BB-	2r	2B-\	1d	2F/	2dd\
.	2D\	2G/	.	2B-\	1b-
.	2.D\	[1F	2r	2.B-\	.
.	.	.	2d\	.	4a/
.	4D\	.	.	4B-\	4g/
=23	=23	=23	=23	=23	=23
2r	4D\	0F]	2.d\	2B-\	1f
.	4E\	.	.	.	.
2D\	4F\	.	.	2B-\	.
.	4G\	.	4e\	.	.
2.D\	2A\	.	2f\	[1A	2r
.	4F\	.	2d\	.	2a/
4E\	4G\	.	.	.	.
=24	=24	=24	=24	=24	=24
2F\	4A\	2r	[0c	2A/]	2a/
.	4B-\	.	.	.	.
2F\	1c	1F	.	4G/	2a/
.	.	.	.	4F/	.
2.C/	.	.	.	1G	2.g/
.	[2G\	2E/	.	.	.
4D\	.	.	.	.	4f/
=25	=25	=25	=25	=25	=25
2E\	2G\]	2G/	1c]	2C/	4e/
.	.	.	.	.	4c/
2F\	2F\	2A/	.	2.c\	1f
1C	2G\	1G	2r	.	.
.	.	.	.	4B-\	.
.	2C/	.	[2c\	2G/	2e/
=26	=26	=26	=26	=26	=26
2FF/	1r	1F	2c\]	2A/	1f
1BB-	.	.	2B-\	1d	.
.	[1F	1r	2d\	.	1r
2C/	.	.	2e-i\	4c\	.
.	.	.	.	4B-\	.
=27	=27	=27	=27	=27	=27
2.D\	2F\]	0r	1d	4A/	1.f
.	.	.	.	4F/	.
.	2G\	.	.	2B-\	.
4E\	.	.	.	.	.
1F	2.A\	.	1c	2A/	.
.	.	.	.	[2c\	2g/
.	4B-\	.	.	.	.
=28	=28	=28	=28	=28	=28
2r	1.c	1F	0r	4c\]	2.a/
.	.	.	.	4B-\	.
1FF	.	.	.	4A/	.
.	.	.	.	4G/	4b-\
.	.	1A	.	1F	[1cc
2GG/	2B-\	.	.	.	.
=29	=29	=29	=29	=29	=29
2.AA/	2A\	1.c	1r	2.C/	2cc\]
.	4G\	.	.	.	4b-\
4BB-/	4F\	.	.	4D/	4a/
1C	1E	.	1c	4E/	1g
.	.	.	.	4F/	.
.	.	4B-\	.	[2G/	.
.	.	4A/	.	.	.
=30	=30	=30	=30	=30	=30
1r	0r	2B-\	1e	4G/]	2r
.	.	.	.	4E/	.
.	.	2c\	.	2A/	2cc\
2r	.	2d\	[1g	1G	2b-\
[2C/	.	2c\	.	.	[2cc\
=31	=31	=31	=31	=31	=31
2C/]	0r	2.c\	2g\]	2r	4cc\]
.	.	.	.	.	4b-\
2F\	.	.	4f\	2.A/	4a/
.	.	8B-\L	4e\	.	4g/
.	.	8c\J	.	.	.
2D\	.	2d\	2f\	.	2f/
.	.	.	.	4B-\	.
2E\	.	[2c\	2g\	2c\	2e/
=32	=32	=32	=32	=32	=32
2F\	0r	2c\]	2a\	2A/	1d
2G\	.	2Bni\	2g\	2B-\	.
2C/	.	1c	2.g\	2G/	2.e/
2C/	.	.	.	[2c\	.
.	.	.	8f\L	.	8d/L
.	.	.	8g\J	.	8c/J
=33	=33	=33	=33	=33	=33
2AA/	0r	1r	2a\	2c\]	2e/
2BB-/	.	.	1g	2d\	2d/
2C/	.	1A	.	2e\	2r
2D\	.	.	2f\	[2d\	2a/
=34	=34	=34	=34	=34	=34
1E-i	1C	1G	1g	2d\]	4.cc\
.	.	.	.	.	8b-/L
.	.	.	.	2c\	8cc/
.	.	.	.	.	8b-/
.	.	.	.	.	8a/
.	.	.	.	.	8g/J
2D\	2.F\	2.A/	1r	2d\	3f/V
.	.	.	.	.	3d/
4C/	.	.	.	[2A/	.
.	.	.	.	.	3f/Z
4BB-/	4G\	4B-\	.	.	.
=35	=35	=35	=35	=35	=35
1AA	4A\	2c\	1e	4A/]	2e/
.	4B-\	.	.	8G/L	.
.	.	.	.	8F/J	.
.	2c\	2A/	.	4E/	2.a/
.	.	.	.	4C/	.
1r	2d\	1B-	1d	2G/	.
.	.	.	.	.	8g/L
.	.	.	.	.	8f/J
.	2G\	.	.	2d\	2g/
=36	=36	=36	=36	=36	=36
2r	1c	1A	2.e\	2c\	1a
2AA/	.	.	.	2A/	.
.	.	.	4f\	.	.
2BB-/	2B-\	1r	2g\	2d\	1r
2C/	4A\	.	2e\	4c\	.
.	4G\	.	.	4B-\	.
=37	=37	=37	=37	=37	=37
1D	1F	2r	1f	2A/	1r
.	.	2A/	.	2D/	.
1C	1G	2c\	1e	2E/	2r
.	.	2c\	.	2G/	2e/
=38	=38	=38	=38	=38	=38
0r	2E\	0c	1r	2C/	2g/
.	2F\	.	.	2.F/	2.a/
.	1A	.	2r	.	.
.	.	.	.	4G/	4b-\
.	.	.	2e\	2A/	4cc\
.	.	.	.	.	4a/
=39	=39	=39	=39	=39	=39
1r	1G	1B-	2g\	4d\	4b-\
.	.	.	.	4c\	4a/
.	.	.	2g\	4B-\	4g/
.	.	.	.	4A/	4f/
2r	1C	1c	[1g	2.G/	1e
[2C/	.	.	.	.	.
.	.	.	.	4F/	.
=40	=40	=40	=40	=40	=40
4C/]	0r	1r	1g]	4E/	0c
4D\	.	.	.	4D/	.
2E\	.	.	.	2C/	.
2F\	.	1A	1f	2r	.
2A\	.	.	.	2F/	.
=41	=41	=41	=41	=41	=41
1G	2r	1B-	1g	4B-\	1d
.	.	.	.	4A/	.
.	1G	.	.	4G/	.
.	.	.	.	4F/	.
1C	.	[1c	1r	2E/	2.e/
.	[2E\	.	.	2C/	.
.	.	.	.	.	4f/
=42	=42	=42	=42	=42	=42
1C	4E\]	2c\]	1e	1G	1g
.	4F\	.	.	.	.
.	2G\	2B-\	.	.	.
1D	2D\	1A	1f	2F/	1r
.	[2d\	.	.	2F/	.
=43	=43	=43	=43	=43	=43
1.E	2d\]	1G	1.g	2B-\	0r
.	2c\	.	.	2c\	.
.	4B-\	2G/	.	1d	.
.	4c\	.	.	.	.
2D\	4d\	[2A/	2f\	.	.
.	4B-\	.	.	.	.
=44	=44	=44	=44	=44	=44
1C	2.c\	2A/]	1e	2e\	1r
.	.	1G	.	2c\	.
.	4B-\	.	.	.	.
1D	4A\	.	1d	4f\	1a
.	4G\	.	.	4e\	.
.	2A\	2F#i/	.	4d\	.
.	.	.	.	4c\	.
=45	=45	=45	=45	=45	=45
1GG	1G	1G	2d\	4B-\	2.b-\
.	.	.	.	4A/	.
.	.	.	1e	4G/	.
.	.	.	.	4F/	4a/
1r	2C/	2r	.	2E/	4g/
.	.	.	.	.	4e/
.	2D\	2F/	[2d\	2A/	2d/
=46	=46	=46	=46	=46	=46
0r	4E\	2G/	2d\]	2G/	2g/
.	4C/	.	.	.	.
.	2F\	2A/	2c\	1F	2f/
.	4BB-/	2.B-\	1d	.	4d/
.	4C/	.	.	.	4e/
.	4D\	.	.	2B-\	4f/
.	4E\	4A/	.	.	4g/
=47	=47	=47	=47	=47	=47
2r	2F\	2F/	2r	2A/	1a
2AA/	2E\	2A/	2c\	2c\	.
2BB-/	2D\	1G	2d\	2B-\	2r
2C/	2C/	.	2e\	2G/	2cc\
=48	=48	=48	=48	=48	=48
2.D\	2F\	1F	2.f\	2.d\	2b-\
.	2.A\	.	.	.	1a
4E\	.	.	4e\	4c\	.
2F\	.	1r	2c\	2A/	.
.	4G\	.	.	.	.
2C/	2E\	.	2e\	2c\	[2g/
=49	=49	=49	=49	=49	=49
2D\	2F\	0r	1d	2A/	2g/]
2BB-/	2D\	.	.	2B-\	1f
1C	2.E\	.	1c	1G	.
.	.	.	.	.	2e/
.	8F\L	.	.	.	.
.	8G\J	.	.	.	.
=50	=50	=50	=50	=50	=50
2FF/	4A\	1r	0r	1F	0f
.	4G\	.	.	.	.
4BB-/	4F\	.	.	.	.
4C/	4E\	.	.	.	.
4D\	1D	2r	.	2r	.
4E\	.	.	.	.	.
[2F\	.	2F/	.	2A/	.
=51	=51	=51	=51	=51	=51
2F\]	1C	2G/	0r	2c\	0r
2E\	.	2G/	.	2c\	.
1F	2r	2.A/	.	2c\	.
.	[2c\	.	.	4F/	.
.	.	4B-\	.	4G/	.
=52	=52	=52	=52	=52	=52
0r	2c\]	1c	2r	4A/	2r
.	.	.	.	4B-\	.
.	2A\	.	2c\	2.c\	2e/
.	2B-\	1G	2d\	.	2g/
.	.	.	.	8B-/L	.
.	.	.	.	8A/J	.
.	2G\	.	2d\	2B-\	2g/
=53	=53	=53	=53	=53	=53
1r	2C/	0r	2.e\	2c\	2g/
.	1c	.	.	2A/	4c/
.	.	.	4f\	.	4d/
1C	.	.	1g	1G	4e/
.	.	.	.	.	4f/
.	2G\	.	.	.	[2g/
=54	=54	=54	=54	=54	=54
2D\	2B-\	0r	1d	1r	4g/]
.	.	.	.	.	8f/L
.	.	.	.	.	8e/J
2D\	2A\	.	.	.	2f/
2.E\	4G\	.	1r	2r	1g
.	4F\	.	.	.	.
.	4E\	.	.	[2c\	.
4F\	4D\	.	.	.	.
=55	=55	=55	=55	=55	=55
1G	1C	1r	0r	2c\]	2r
.	.	.	.	2G/	1g
2.D\	2r	1F	.	2B-\	.
.	2A\	.	.	2A/	2f/
4C/	.	.	.	.	.
=56	=56	=56	=56	=56	=56
2BB-/	2B-\	2D/	0r	2G/	2g/
2AA/	2c\	1F	.	2c\	2a/
1GG	2d\	.	.	2.B-\	1b-
.	2G\	2E/	.	.	.
.	.	.	.	8A/L	.
.	.	.	.	8G/J	.
=57	=57	=57	=57	=57	=57
2.FF/	2.A\	2F/	1c	2c\	1a
.	.	4E/	.	2F/	.
4GG/	8G\L	4D/	.	.	.
.	8F\J	.	.	.	.
4AA/	4E\	2C/	2A/	2c\	1r
4BB-/	4D\	.	.	.	.
2AA/	2C/	2E/	[2c\	[2A/	.
=58	=58	=58	=58	=58	=58
2FF/	2r	1D	2c\]	2A/]	2r
2GG/	1G	.	2B-\	4G/	2d/
.	.	.	.	4F/	.
1C	.	1C	2c\	4E/	2.e/
.	.	.	.	4F/	.
.	[2E\	.	4B-\	4G/	.
.	.	.	4A/	4A/	4f/
=59	=59	=59	=59	=59	=59
1r	4E\]	1r	2G/	2.B-\	2g/
.	4F\	.	.	.	.
.	2G\	.	2B-\	.	2d/
.	.	.	.	4A/	.
1FF	2A\	1F	1A	2F/	2f/
.	2F\	.	.	[2c\	4c/
.	.	.	.	.	4d/
=60	=60	=60	=60	=60	=60
1C	2G\	2.E/	1G	4c\]	4e/
.	.	.	.	4d\	4f/
.	2C/	.	.	2e\	4g/
.	.	4F/	.	.	4a/
2BB-/	2D\	2G/	1r	2d\	2b-\
2AA/	2E\	[2A/	.	[2c\	4cc\
.	.	.	.	.	4b-\
=61	=61	=61	=61	=61	=61
1FF	2F\	4A/]	1c	4c\]	4a/
.	.	4B-\	.	4B-\	4g/
.	2C/	4c\	.	2A/	4f/
.	.	4A/	.	.	4e/
2.GG/	1G	4B-\	2.B-\	2r	1d
.	.	4G/	.	.	.
.	.	[2B-\	.	[2d\	.
4AA/	.	.	4c\	.	.
=62	=62	=62	=62	=62	=62
2BB-/	2F\	2B-\]	4d\	2d\]	1r
.	.	.	4c\	.	.
2.C/	2E\	2A/	2.e\	2c\	.
.	2C/	1G	.	2.c\	1g
4D\	.	.	4f\	.	.
4E\	[2c\	.	4g\	.	.
4C/	.	.	4e\	4B-\	.
=63	=63	=63	=63	=63	=63
2.F\	2c\]	1r	4f\	3A/V	2a/
.	.	.	4d\	.	.
.	.	.	.	3B-\	.
.	2A\	.	1f	.	2.f/
.	.	.	.	3c\Z	.
4E\	.	.	.	.	.
2D\	2B-\	1F	.	2d\	.
.	.	.	.	.	4g/
2C/	2c\	.	2e\	2A/	2a/
=64	=64	=64	=64	=64	=64
1BB-	2d\	1G	1d	2r	1b-
.	2D\	.	.	2d\	.
2.AA/	2F\	1A	1r	4c\	[1cc
.	.	.	.	2A/	.
.	[2E\	.	.	.	.
4BB-/	.	.	.	8G/L	.
.	.	.	.	8F/J	.
=65	=65	=65	=65	=65	=65
2C/	4E\]	1G	1c	2E/	1cc]
.	4F\	.	.	.	.
2E\	2G\	.	.	2C/	.
2D\	2A\	2F/	1d	2F/	1r
2BB-/	[2B-\	[2F/	.	2D/	.
=66	=66	=66	=66	=66	=66
1C	2B-\]	2F/]	1e	2C/	1cc
.	2A\	2E/	.	2c\	.
2.BB-/	1B-	1F	1d	2d\	2f/
.	.	.	.	2B-\	2g/
4AA/	.	.	.	.	.
=67	=67	=67	=67	=67	=67
1FF	2A\	0r	2c\	2c\	1a
.	2F\	.	1c	2.f\	.
1r	1G	.	.	.	1b-
.	.	.	.	8e\L	.
.	.	.	.	8d\J	.
.	.	.	2B-\	2e\	.
=68	=68	=68	=68	=68	=68
1.c	1F	0r	1c	1f	[0a
.	[1c	.	1r	2.F/	.
2B-\	.	.	.	.	.
.	.	.	.	4G/	.
=69	=69	=69	=69	=69	=69
2.A\	2c\]	0F	0r	2A/	0a]
.	2B-\	.	.	2B-\	.
4G\	.	.	.	.	.
2F\	2A\	.	.	2.c\	.
2E\	2G\	.	.	.	.
.	.	.	.	8B-\L	.
.	.	.	.	8c\J	.
=70	=70	=70	=70	=70	=70
2.D\	1F	0A	1r	4d\	1a
.	.	.	.	4e\	.
.	.	.	.	4f\	.
4C/	.	.	.	4d\	.
2AA/	2E\	.	[1c	2e\	[1cc
[2FF/	2F\	.	.	[2A/	.
=71	=71	=71	=71	=71	=71
4FF/]	2C/	[0c	1c]	2A/]	1cc]
4GG/	.	.	.	.	.
4AA/	2F\	.	.	2.c\	.
4BB-/	.	.	.	.	.
[1C	2E\	.	[1e	.	1cc
.	.	.	.	4B-\	.
.	2C/	.	.	[2G/	.
=72	=72	=72	=72	=72	=72
1C]	1E	0c]	1e]	2G/]	1g
.	.	.	.	2G/	.
1C	1E	.	[1g	2.G/	[1cc
.	.	.	.	4A/	.
=73	=73	=73	=73	=73	=73
1GG	1D	0d	0g_	2.B-\	2cc\]
.	.	.	.	.	4b-\
.	.	.	.	4c\	4a/
1GG	1G	.	.	2d\	4b-\
.	.	.	.	.	4a/
.	.	.	.	2B-\	4g/
.	.	.	.	.	4f/
=74	=74	=74	=74	=74	=74
1C	2r	1r	1g]	1c	4e/
.	.	.	.	.	4d/
.	1C	.	.	.	4c/
.	.	.	.	.	4B-/
2.FF/	.	1c	[1a	2r	2.A/
.	[2F\	.	.	[2c\	.
4GG/	.	.	.	.	4B-/
=75	=75	=75	=75	=75	=75
4AA/	2F\]	1c	1a]	4c\]	4c/
4BB-/	.	.	.	4B-\	4d/
1C	2E\	.	.	4A/	2e/
.	.	.	.	4G/	.
.	1D	1d	1r	2A/	3f/V
.	.	.	.	.	3d/
2BB-/	.	.	.	2B-\	.
.	.	.	.	.	3f/Z
=76	=76	=76	=76	=76	=76
2.C/	2.E\	1c	1g	2G/	1.e
.	.	.	.	1c	.
4D\	4F\	.	.	.	.
4E\	2G\	1r	1g	.	.
4F\	.	.	.	.	.
[2G\	2G\	.	.	2B-\	2d/
=77	=77	=77	=77	=77	=77
2G\]	2c\	1c	1a	2A/	2e/
2F\	2A\	.	.	2c\	2f/
1G	2.B-\	1B-	1g	2G/	1d
.	.	.	.	2d\	.
.	4G\	.	.	.	.
=78	=78	=78	=78	=78	=78
1C	1G	1c	1r	2.e\	2.c/
.	.	.	.	4d\	4d/
1r	1r	1r	1g	2c\	4e/
.	.	.	.	.	4f/
.	.	.	.	2B-\	2g/
=79	=79	=79	=79	=79	=79
0r	0r	1A	1f	1c	2a/
.	.	.	.	.	1cc
.	.	1G	1g	1d	.
.	.	.	.	.	2b-\
=80	=80	=80	=80	=80	=80
2r	2r	1A	1r	2c\	2cc\
1D	2.A\	.	.	2F/	1a
.	.	1r	1e	2.c\	.
.	4G\	.	.	.	.
2C/	2E\	.	.	.	2a/
.	.	.	.	4B-\	.
=81	=81	=81	=81	=81	=81
1D	1F	1A	1d	4A/	1a
.	.	.	.	4G/	.
.	.	.	.	1A	.
1AA	2E\	1c	1e	.	[1a
.	2A\	.	.	4G/	.
.	.	.	.	4F/	.
=82	=82	=82	=82	=82	=82
1AA	1c	1A	1r	1E	2a/]
.	.	.	.	.	4g/
.	.	.	.	.	4f/
[1C	1c	[1G	1e	2E/	2.e/
.	.	.	.	[2G/	.
.	.	.	.	.	4d/
=83	=83	=83	=83	=83	=83
1C]	2G\	1G]	1g	2G/]	2c/
.	2E\	.	.	2G/	2g/
1C	1G	1G	1e	4C/	2cc\
.	.	.	.	4D/	.
.	.	.	.	4E/	2cc\
.	.	.	.	4C/	.
=84	=84	=84	=84	=84	=84
2.GG/	1G	2.B-\	0d	1D	1.b-
4AA/	.	4A/	.	.	.
4BB-/	1D	2G/	.	1r	.
4C/	.	.	.	.	.
2D\	.	2F/	.	.	2a/
=85	=85	=85	=85	=85	=85
1GG	2r	1G	1d	2r	1b-
.	1D	.	.	2G/	.
2.D\	.	1F	2.e\	4A/	1a
.	.	.	.	4F/	.
.	[2F\	.	.	2A/	.
4C/	.	.	4d\	.	.
=86	=86	=86	=86	=86	=86
2BB-/	4F\]	0r	2d\	2B-\	2r
.	4G\	.	.	.	.
2AA/	2A\	.	2c\	2c\	2.f/
1BB-	2.D\	.	1d	1B-	.
.	.	.	.	.	4e/
.	.	.	.	.	4f/
.	4E\	.	.	.	4g/
=87	=87	=87	=87	=87	=87
1FF	1F	1F	1c	1A	2a/
.	.	.	.	.	2.f/
1C	2r	1G	1r	2r	.
.	.	.	.	.	8e/L
.	.	.	.	.	8d/J
.	2C/	.	.	2c\	2e/
=88	=88	=88	=88	=88	=88
1D	2F\	1F	1r	2A/	1f
.	2D\	.	.	2B-\	.
1C	1E	1G	1c	2c\	1r
.	.	.	.	4G/	.
.	.	.	.	4A/	.
=89	=89	=89	=89	=89	=89
2r	1D	1F	1d	4B-\	0r
.	.	.	.	4G/	.
2BB-/	.	.	.	2B-\	.
2C/	1r	2E/	1c	2G/	.
2AA/	.	[2F/	.	2A/	.
=90	=90	=90	=90	=90	=90
1BB-	1r	2F/]	1d	1D	1r
.	.	2G/	.	.	.
1AA	2r	1A	1c	2E/	2r
.	2A\	.	.	2F/	2a/
=91	=91	=91	=91	=91	=91
0r	2G\	1r	2B-\	2G/	2b-\
.	1F	.	1c	2A/	1a
.	.	1A	.	1F	.
.	4E\	.	2d\	.	4g/
.	4D\	.	.	.	4f/
=92	=92	=92	=92	=92	=92
1r	1C	1.c	1e	1G	2e/
.	.	.	.	.	1g
[1C	[1E	.	1r	[1c	.
.	.	2G/	.	.	2g/
=93	=93	=93	=93	=93	=93
2C/]	2E\]	1G	1e	2c\]	1g
2C/	2E\	.	.	2c\	.
2.C/	4E\	1r	[1g	2c\	1cc
.	4F\	.	.	.	.
.	4G\	.	.	2c\	.
4BB-/	4A\	.	.	.	.
=94	=94	=94	=94	=94	=94
4GG/	1B-	2r	2g\]	1d	1b-
4AA/	.	.	.	.	.
4BB-/	.	2G/	2d\	.	.
4C/	.	.	.	.	.
2D\	2A\	2F/	1d	2r	1r
2BB-/	2G\	2D/	.	[2d\	.
=95	=95	=95	=95	=95	=95
1AA	1A	1E	1r	2d\]	2r
.	.	.	.	2c\	2a/
2r	1r	1D	2r	2d\	2f/
2BB-/	.	.	2d\	2B-\	2d/
=96	=96	=96	=96	=96	=96
2AA/	1r	0r	2c\	1c	2e/
2FF/	.	.	2A/	.	2.f/
2.BB-/	1D	.	1B-	1d	.
.	.	.	.	.	4e/
.	.	.	.	.	4f/
4AA/	.	.	.	.	4g/
=97	=97	=97	=97	=97	=97
1FF	2.F\	1C	1A	1c	2a/
.	.	.	.	.	2f/
.	4E\	.	.	.	.
2r	4F\	2D/	1r	1F	[1a
.	4G\	.	.	.	.
[2FF/	[2A\	[2F/	.	.	.
=98	=98	=98	=98	=98	=98
4FF/]	4A\]	2F/]	1r	1A	2a/]
4GG/	4B-\	.	.	.	.
4AA/	1c	4E/	.	.	4g/
4BB-/	.	4D/	.	.	4f/
2.C/	.	1E	1G	2G/	2e/
.	[2C/	.	.	[2E/	[2cc\
4BB-/	.	.	.	.	.
=99	=99	=99	=99	=99	=99
2AA/	4C/]	0r	2A/	2E/]	2cc\]
.	8D\L	.	.	.	.
.	8E\J	.	.	.	.
2FF/	2F\	.	1c	2.A/	2a/
1AA	2E\	.	.	.	1cc
.	.	.	.	4G/	.
.	2C/	.	4B-\	4E/	.
.	.	.	4A/	4F/	.
=100	=100	=100	=100	=100	=100
1GG	2D\	2.G/	1B-	4G/	2.b-\
.	.	.	.	4A/	.
.	2.G\	.	.	4B-\	.
.	.	4A/	.	4c\	4a/
2r	.	2B-\	1r	2d\	[1g
.	4F\	.	.	.	.
[2C/	4E\	2c\	.	2G/	.
.	4D\	.	.	.	.
=101	=101	=101	=101	=101	=101
4C/]	2E\	2G/	1r	2c\	2g/]
4D\	.	.	.	.	.
4E\	2C/	1c	.	2.G/	4f/
4F\	.	.	.	.	4e/
2.G\	2r	.	2.d\	.	[1d
.	.	.	.	4A/	.
.	2G\	2B-\	.	4B-\	.
4F\	.	.	4e\	4c\	.
=102	=102	=102	=102	=102	=102
2D\	2A\	2A/	2f\	1d	0d_
2.GG/	2.B-\	2G/	2g\	.	.
.	.	1B-	2d\	2r	.
4AA/	4c\	.	.	.	.
4BB-/	2d\	.	[2g\	4D/	.
4C/	.	.	.	4E/	.
=103	=103	=103	=103	=103	=103
2.D\	4D\	1.A	2g\]	4F/	1d]
.	4E\	.	.	4G/	.
.	4F\	.	2f\	4A/	.
4C/	4G\	.	.	4B-\	.
2AA/	2A\	.	2e\	2c\	1r
2BB-/	2D\	2F/	2d\	2B-\	.
=104	=104	=104	=104	=104	=104
4FF/	4A\	1F	1f	1A	2.c/
4GG/	4B-\	.	.	.	.
4AA/	1c	.	.	.	.
4BB-/	.	.	.	.	4d/
[1C	.	1r	[1e	[1G	4e/
.	.	.	.	.	4f/
.	[2C/	.	.	.	2g/
=105	=105	=105	=105	=105	=105
0C_	4C/]	1G	2e\]	1G]	2d/
.	4D\	.	.	.	.
.	4E\	.	2c\	.	2.g/
.	4F\	.	.	.	.
.	2G\	2E/	1c	1r	.
.	.	.	.	.	4f/
.	2A\	2F/	.	.	[2f/
=106	=106	=106	=106	=106	=106
1C]	2.G\	1G	1r	1c	2f/]
.	.	.	.	.	2e/
.	4F\	.	.	.	.
2r	2D\	[1Fl	1d	2A/	[1fl
[2BB-/	[2B-\	.	.	[2d\	.
=107	=107	=107	=107	=107	=107
2BB-/]	4B-\]	0F_	2B-\	2d\]	0f_
.	4G\	.	.	.	.
2AA/	2A\	.	2c\	2c\	.
2BB-/	2.D\	.	1d	1B-	.
2BB-/	.	.	.	.	.
.	4E\	.	.	.	.
=108	=108	=108	=108	=108	=108
0FFl	1F	0F]	0cl	0Al	0f]
.	1Cl	.	.	.	.
!!LO:LB:i:g=z
=109||	=109||	=109||	=109||	=109||	=109||
*>B	*>B	*>B	*>B	*>B	*>B
*clefF4	*clefF4	*clefGv2	*clefGv2	*clefGv2	*clefG2
*k[b-]	*k[b-]	*k[b-]	*k[b-]	*k[b-]	*k[b-]
*M2/1	*M2/1	*M2/1	*M2/1	*M2/1	*M2/1
*met(C|)	*met(C|)	*met(C|)	*met(C|)	*met(C|)	*met(C|)
!!!OMD: Secunda pars: Cum ergo
!!section: Secunda pars: Cum ergo
0r	0r	0F	0r	0r	0r
=110	=110	=110	=110	=110	=110
0r	0r	1F	0r	0r	0r
.	.	1G	.	.	.
=111	=111	=111	=111	=111	=111
0BB-	0r	1B-	0r	0r	0r
.	.	[1B-	.	.	.
=112	=112	=112	=112	=112	=112
1BB-	0r	2B-\]	0r	0r	0r
.	.	4A/	.	.	.
.	.	4G/	.	.	.
1C	.	2A/	.	.	.
.	.	[2G/	.	.	.
=113	=113	=113	=113	=113	=113
1E-i	0r	2G/]	0r	0r	0r
.	.	2C/	.	.	.
[1E-i	.	2.G/	.	.	.
.	.	4A/	.	.	.
=114	=114	=114	=114	=114	=114
2E-\]	0r	4B-\	0r	0r	0r
.	.	4G/	.	.	.
4D\	.	1c	.	.	.
4C/	.	.	.	.	.
1D	.	.	.	.	.
.	.	2Bni\	.	.	.
=115	=115	=115	=115	=115	=115
2.C/	0C	1.c	0r	0r	0r
4D\	.	.	.	.	.
4E\	.	.	.	.	.
4C/	.	.	.	.	.
[2F\	.	4B-\	.	.	.
.	.	4A/	.	.	.
=116	=116	=116	=116	=116	=116
2F\]	1C	2G/	0r	0r	0r
2E\	.	2A/	.	.	.
1F	1D	1B-	.	.	.
=117	=117	=117	=117	=117	=117
0FF	1F	1A	0r	0r	0r
.	[1F	2r	.	.	.
.	.	[2A/	.	.	.
=118	=118	=118	=118	=118	=118
2r	2F\]	2A/]	0r	0r	0r
1AA	4E\	2A/	.	.	.
.	4D\	.	.	.	.
.	1E	1c	.	.	.
2AA/	.	.	.	.	.
=119	=119	=119	=119	=119	=119
1BB-	1D	1d	0r	0r	0r
2AA/	2r	1c	.	.	.
[2C/	[2E\	.	.	.	.
=120	=120	=120	=120	=120	=120
4C/]	2E\]	2r	0r	0r	0r
4BB-/	.	.	.	.	.
2AA/	2E\	2C/	.	.	.
1GG	1G	2D/	.	.	.
.	.	2E/	.	.	.
=121	=121	=121	=121	=121	=121
1FF	1A	2F/	0r	0r	0r
.	.	4E/	.	.	.
.	.	4D/	.	.	.
1r	2G\	1E	.	.	.
.	[2C/	.	.	.	.
=122	=122	=122	=122	=122	=122
1.AA	4C/]	2r	0r	0r	0r
.	4D\	.	.	.	.
.	4E\	2.C/	.	.	.
.	4F\	.	.	.	.
.	2E\	.	.	.	.
.	.	4D/	.	.	.
2AA/	[2A\	4E/	.	.	.
.	.	4F/	.	.	.
=123	=123	=123	=123	=123	=123
1C	4A\]	4E/	0r	0r	0r
.	4G\	4C/	.	.	.
.	1G	2.c\	.	.	.
1D	.	.	.	.	.
.	.	8B-/L	.	.	.
.	.	8A/J	.	.	.
.	2F\	2B-\	.	.	.
=124	=124	=124	=124	=124	=124
1C	2G\	4c\	0r	0r	0r
.	.	4B-\	.	.	.
.	2c\	4A/	.	.	.
.	.	4G/	.	.	.
2r	1c	1A	.	.	.
2F\	.	.	.	.	.
=125	=125	=125	=125	=125	=125
1F	2.c\	2r	0r	0r	0r
.	.	2c\	.	.	.
.	4B-\	.	.	.	.
2F\	4A\	1c	.	.	.
.	4G\	.	.	.	.
[2FF/	[2A\	.	.	.	.
=126	=126	=126	=126	=126	=126
4FF/]	2A\]	1c	0r	0r	0r
4GG/	.	.	.	.	.
4AA/	4G\	.	.	.	.
4BB-/	4F\	.	.	.	.
2C/	2E\	1c	.	.	.
2AA/	[2A\	.	.	.	.
=127	=127	=127	=127	=127	=127
1BB-	4A\]	1d	0r	0r	0r
.	8G\L	.	.	.	.
.	8F\J	.	.	.	.
.	2G\	.	.	.	.
[1AA	1A	[1c	.	.	.
=128	=128	=128	=128	=128	=128
1AA]	1.c	1c]	0r	0r	0r
[1F	.	1r	.	.	.
.	2B-\	.	.	.	.
=129	=129	=129	=129	=129	=129
2F\]	1A	0r	0r	0r	0r
2E\	.	.	.	.	.
2D\	1B-	.	.	.	.
[2E-\	.	.	.	.	.
=130	=130	=130	=130	=130	=130
2E-\]	0G	0r	0r	0r	0r
1C	.	.	.	.	.
[2E-i\	.	.	.	.	.
=131	=131	=131	=131	=131	=131
2E-\]	1B-	0r	0r	0r	0r
2.BB-/	.	.	.	.	.
.	2.F\	.	.	.	.
4C/	.	.	.	.	.
4D\	.	.	.	.	.
4Eni\	4G\	.	.	.	.
=132	=132	=132	=132	=132	=132
2F\	4A\	1r	0r	0r	0r
.	4B-\	.	.	.	.
2.FF/	1c	.	.	.	.
.	.	[1c	.	.	.
4GG/	.	.	.	.	.
4AA/	4B-\	.	.	.	.
4BB-/	4A\	.	.	.	.
=133	=133	=133	=133	=133	=133
2C/	2G\	2c\]	0r	0r	0r
2D\	1F	2B-\	.	.	.
2.C/	.	1A	.	.	.
.	2E\	.	.	.	.
4BB-/	.	.	.	.	.
=134	=134	=134	=134	=134	=134
1GG	2.G\	1B-	0r	0r	0r
.	4F\	.	.	.	.
2r	2E\	1G	.	.	.
[2GG/	2D\	.	.	.	.
=135	=135	=135	=135	=135	=135
4GG/]	1G	1B-	0r	0r	0r
4AA/	.	.	.	.	.
4BB-/	.	.	.	.	.
4C/	.	.	.	.	.
4D\	1r	2.F/	.	.	.
4E\	.	.	.	.	.
[2F\	.	.	.	.	.
.	.	4G/	.	.	.
=136	=136	=136	=136	=136	=136
4F\]	1r	4A/	0r	0r	0r
4G\	.	4B-\	.	.	.
4A\	.	2.c\	.	.	.
4F\	.	.	.	.	.
2G\	[1C	.	.	.	.
.	.	4B-\	.	.	.
[2F\	.	2A/	.	.	.
=137	=137	=137	=137	=137	=137
2F\]	1C]	1G	0r	0r	0r
2E\	.	.	.	.	.
1F	1D	2F/	.	.	.
.	.	[2A/	.	.	.
=138	=138	=138	=138	=138	=138
1r	1F	4A/]	0r	0r	0r
.	.	4B-\	.	.	.
.	.	2.c\	.	.	.
[1FF	2F\	.	.	.	.
.	.	4B-\	.	.	.
.	4E\	[2A/	.	.	.
.	4D\	.	.	.	.
=139	=139	=139	=139	=139	=139
1FF]	2C/	4A/]	0r	0r	0r
.	.	4G/	.	.	.
.	2c\	4F/	.	.	.
.	.	4E/	.	.	.
1GG	4B-\	1D	.	.	.
.	4G\	.	.	.	.
.	[2B-\	.	.	.	.
=140	=140	=140	=140	=140	=140
1BB-	4B-\]	1r	0r	0r	0r
.	4c\	.	.	.	.
.	1d	.	.	.	.
2.BB-/	.	[1F	.	.	.
.	4c\	.	.	.	.
4C/	4B-\	.	.	.	.
=141	=141	=141	=141	=141	=141
1D	4A\	1F]	0r	0r	0r
.	4G\	.	.	.	.
.	2A\	.	.	.	.
2GG/	2G\	1G	.	.	.
2C/	2E\	.	.	.	.
=142	=142	=142	=142	=142	=142
2BB-/	2F\	1B-	0r	0r	0r
2.GG/	2G\	.	.	.	.
.	1D	1B-	.	.	.
4AA/	.	.	.	.	.
4BB-/	.	.	.	.	.
4C/	.	.	.	.	.
=143	=143	=143	=143	=143	=143
2D\	2r	2r	0r	0r	0r
1D	1F	1A	.	.	.
2D\	2F\	2A/	.	.	.
=144	=144	=144	=144	=144	=144
2D\	2F\	2A/	0r	0r	0r
2D\	2F\	2B-\	.	.	.
2.C/	1G	4c\	.	.	.
.	.	4d\	.	.	.
.	.	4e\	.	.	.
8BB-/L	.	4c\	.	.	.
8AA/J	.	.	.	.	.
=145	=145	=145	=145	=145	=145
4GG/	1B-	2d\	0r	0r	0r
4AA/	.	.	.	.	.
4BB-/	.	4c\	.	.	.
4C/	.	4B-\	.	.	.
2D\	1F	2A/	.	.	.
2BB-/	.	[2d\	.	.	.
=146	=146	=146	=146	=146	=146
1D	1F	4d\]	0r	0r	0r
.	.	4c\	.	.	.
.	.	1B-	.	.	.
1C	1E	.	.	.	.
.	.	2A/	.	.	.
=147	=147	=147	=147	=147	=147
*M3/1	*M3/1	*M3/1	*M3/1	*M3/1	*M3/1
*met(3)	*met(3)	*met(3)	*met()	*met()	*met()
0BB-	1.F	0B-	0.r	0.r	0.r
.	2G\	.	.	.	.
1r	1A	1r	.	.	.
=148	=148	=148	=148	=148	=148
1.BB-	1B-	0.r	0.r	0.r	0.r
.	1B-	.	.	.	.
2C/	.	.	.	.	.
1D	1A	.	.	.	.
=149	=149	=149	=149	=149	=149
1E-i	2G\	1.B-	0.r	0.r	0.r
.	1B-	.	.	.	.
1E-i	.	.	.	.	.
.	4A\	2c\	.	.	.
.	4F\	.	.	.	.
1D	1F	1d	.	.	.
=150	=150	=150	=150	=150	=150
2C/	1.G	1e-i	0.r	0.r	0.r
1E-i	.	.	.	.	.
.	.	1e-i	.	.	.
4D\	2A\	.	.	.	.
4C/	.	.	.	.	.
1BB-	1B-	1d	.	.	.
=151	=151	=151	=151	=151	=151
0C	1A	1c	0.r	0.r	0.r
.	1.G	1.e-i	.	.	.
[1E-i	.	.	.	.	.
.	2F\	4d\	.	.	.
.	.	4c\	.	.	.
=152	=152	=152	=152	=152	=152
2E-\]	2G\	1B-	0.r	0.r	0.r
2D\	2A\	.	.	.	.
1BB-	1B-	1d	.	.	.
1C	[1G	1c	.	.	.
=153	=153	=153	=153	=153	=153
1GG	2G\]	1.B-	0.r	0.r	0.r
.	4F\	.	.	.	.
.	4E\	.	.	.	.
1.BB-	2D\	.	.	.	.
.	2C/	2A/	.	.	.
.	2D\	1G	.	.	.
2C/	2E\	.	.	.	.
=154	=154	=154	=154	=154	=154
1AA	1.F	1A	0.r	0.r	0.r
0GG	.	1.B-	.	.	.
.	4E\	.	.	.	.
.	4D\	.	.	.	.
.	1E	.	.	.	.
.	.	4A/	.	.	.
.	.	4G/	.	.	.
=155	=155	=155	=155	=155	=155
0.FFl	0.Fl	0.Al	0.r	0.r	0.r
!!LO:LB:i:g=z
=156||	=156||	=156||	=156||	=156||	=156||
*>C	*>C	*>C	*>C	*>C	*>C
*clefF4	*clefF4	*clefGv2	*clefGv2	*clefGv2	*clefG2
*k[b-]	*k[b-]	*k[b-]	*k[b-]	*k[b-]	*k[b-]
*M2/1	*M2/1	*M2/1	*M2/1	*M2/1	*M2/1
*met(C|)	*met(C|)	*met(C|)	*met(C|)	*met(C|)	*met(C|)
!!!OMD: Tertia pars: Nunc dimittis
!!section: Tertia pars: Nunc dimittis
!	!	!	!LO:TX:Z=6:X=-50:t=Canon at the lower fifth	!	!
0C	0G	0r	1c	0c	0g
.	.	.	2.e\	.	.
.	.	.	4f\	.	.
=157	=157	=157	=157	=157	=157
1C	1G	1r	1g	1c	1e
[1FF	[1F	1F	1a	[1A	1f
=158	=158	=158	=158	=158	=158
2FF/]	2F\]	2.A/	0r	1A]	1c
2GG/	4E\	.	.	.	.
.	4D\	4B-\	.	.	.
1AA	1C	1c	.	1A	2r
.	.	.	.	.	[2cc\
=159	=159	=159	=159	=159	=159
0GG	0G	1d	1g	2.B-\	2cc\]
.	.	.	.	.	4b-\
.	.	.	.	4c\	4a/
.	.	1r	1g	2d\	1b-
.	.	.	.	2D/	.
=160	=160	=160	=160	=160	=160
1FF	2.C/	1r	1a	1F	1cc
.	4D\	.	.	.	.
1C	4E\	1c	2g\	1G	2r
.	4F\	.	.	.	.
.	2E\	.	2g\	.	2g/
=161	=161	=161	=161	=161	=161
1AA	1C	1c	1f	2r	2a/
.	.	.	.	2A/	1cc
1GG	2G\	1d	1g	2B-\	.
.	2G\	.	.	2B-\	2bni\
=162	=162	=162	=162	=162	=162
2r	2C/	2c\	1e	2G/	1cc
2C/	2.G\	2c\	.	2c\	.
2G\	.	1B-	1d	2d\	2r
.	4A\	.	.	.	.
2G\	2B-\	.	.	2d\	2g/
=163	=163	=163	=163	=163	=163
1C	2A\	1c	1e	1c	3e/V
.	.	.	.	.	3f/
.	2G\	.	.	.	.
.	.	.	.	.	3g/Z
1r	2A\	1A	1e	1r	1c
.	[2c\	.	.	.	.
=164	=164	=164	=164	=164	=164
1r	2c\]	1G	1g	1r	1d
.	2B-\	.	.	.	.
1AA	2c\	1A	1e	2r	2c/
.	2C/	.	.	2c\	2e/
=165	=165	=165	=165	=165	=165
1D	2F\	1A	2d\	2A/	2f/
.	2D\	.	2f\	2F/	1a
1C	1E	1c	1e	2.G/	.
.	.	.	.	.	[2g/
.	.	.	.	4F/	.
=166	=166	=166	=166	=166	=166
1D	2F\	1A	1d	2D/	2g/]
.	1D	.	.	2A/	2f#i/
2GG/	.	2G/	1r	2B-\	1g
2GG/	2G\	2B-\	.	[2d\	.
=167	=167	=167	=167	=167	=167
2AA/	2E\	1A	0r	4d\]	1r
.	.	.	.	4c\	.
2FF/	2F\	.	.	1c	.
1GG	1D	1G	.	.	2r
.	.	.	.	2Bni\	[2g/
=168	=168	=168	=168	=168	=168
2.G\	0C	0r	2r	1c	2g/]
.	.	.	2.c\	.	2e/
4F\	.	.	.	.	.
4E\	.	.	.	2r	1g
4D\	.	.	4d\	.	.
2C/	.	.	2e\	4c\	.
.	.	.	.	4B-\	.
=169	=169	=169	=169	=169	=169
2D\	2r	1r	2d\	4A/	2f/
.	.	.	.	4G/	.
2AA/	1c	.	2c\	2A/	2e/
2.BB-/	.	2r	1d	2.D/	4d/
.	.	.	.	.	4e/
.	2B-\	[2F/	.	.	4f/
4AA/	.	.	.	4E/	4g/
=170	=170	=170	=170	=170	=170
1FF	2A\	4F/]	1c	2F/	2.a/
.	.	4G/	.	.	.
.	2F\	2A/	.	1c	.
.	.	.	.	.	8g/L
.	.	.	.	.	8f/J
2C/	2G\	2G/	1r	.	4e/
.	.	.	.	.	4c/
2D\	2D\	2F/	.	2B-\	[2f/
=171	=171	=171	=171	=171	=171
1C	4E\	1G	1r	2.c\	2f/]
.	4C/	.	.	.	.
.	2.c\	.	.	.	2e/
.	.	.	.	4B-\	.
2FF/	.	1F	1c	4A/	[1f
.	4B-\	.	.	4G/	.
2F\	4A\	.	.	[2F/	.
.	4G\	.	.	.	.
=172	=172	=172	=172	=172	=172
2D\	0F	0r	1d	2F/]	0f_
2BB-/	.	.	.	1B-	.
1F	.	.	1c	.	.
.	.	.	.	2A/	.
=173	=173	=173	=173	=173	=173
1BB-	2r	1F	1d	1B-	1f]
.	2F\	.	.	.	.
1r	2E\	1G	1c	1r	2r
.	2C/	.	.	.	2e/
=174	=174	=174	=174	=174	=174
2r	1D	1F	1A	0r	2f/
1F	.	.	.	.	2d/
.	1C	1G	1c	.	4e/
.	.	.	.	.	4f/
2E\	.	.	.	.	4g/
.	.	.	.	.	4a/
=175	=175	=175	=175	=175	=175
2.D\	2r	1F	1d	1r	4b-\
.	.	.	.	.	4cc\
.	2BB-/	.	.	.	1dd
4C/	.	.	.	.	.
4BB-/	2D\	1D	[1f	1B-	.
4AA/	.	.	.	.	.
2BB-/	[2F\	.	.	.	4cc\
.	.	.	.	.	4b-\
=176	=176	=176	=176	=176	=176
1FF	4F\]	1F	2f\]	1c	2a/
.	4E\	.	.	.	.
.	2.C/	.	4e\	.	2.cc\
.	.	.	4d\	.	.
1C	.	1G	2e\	1c	.
.	4D\	.	.	.	4b-\
.	4E\	.	[2g\	.	[2g/
.	4F\	.	.	.	.
=177	=177	=177	=177	=177	=177
2.GG/	0G	1.B-	2g\]	2B-\	4g/]
.	.	.	.	.	4a/
.	.	.	4f\	2.d\	4b-\
4AA/	.	.	4e\	.	4cc\
1BB-	.	.	2d\	.	2dd\
.	.	.	.	4c\	.
.	.	4A/	2d\	4d\	2d/
.	.	4G/	.	4B-\	.
=178	=178	=178	=178	=178	=178
2.AA/	1C	2A/	1c	2c\	2f/
.	.	1c	.	4B-\	2.e/
4BB-/	.	.	.	4A/	.
2C/	2r	.	1r	2G/	.
.	.	.	.	.	4c/
2FF/	[2c\	4B-\	.	2F/	[2f/
.	.	4A/	.	.	.
=179	=179	=179	=179	=179	=179
1C	4c\]	2G/	1c	2G/	2f/]
.	4B-\	.	.	.	.
.	2G\	2G/	.	2C/	2e/
1r	2A\	1F	1A	2.c\	1f
.	[2c\	.	.	.	.
.	.	.	.	4B-\	.
=180	=180	=180	=180	=180	=180
1FF	2c\]	1r	1.c	4A/	0r
.	.	.	.	4G/	.
.	2.F\	.	.	2A/	.
1FF	.	1F	.	2F/	.
.	4E\	.	.	.	.
.	4D\	.	4B-\	2A/	.
.	4C/	.	4A/	.	.
=181	=181	=181	=181	=181	=181
1GG	2BB-/	1D	1B-	4G/	0r
.	.	.	.	4A/	.
.	1D	.	.	4B-\	.
.	.	.	.	4G/	.
2.FF/	.	[1F	1A	2.A/	.
.	2C/	.	.	.	.
4GG/	.	.	.	4B-\	.
=182	=182	=182	=182	=182	=182
2AA/	2F\	2F/]	0r	4c\	0r
.	.	.	.	4A/	.
2BB-/	2G\	4E/	.	1d	.
.	.	4D/	.	.	.
1AA	2.A\	1E	.	.	.
.	.	.	.	2c\	.
.	4G\	.	.	.	.
=183	=183	=183	=183	=183	=183
1r	4F\	1D	1r	2d\	2r
.	4D\	.	.	.	.
.	1F	.	.	2A/	2d/
2r	.	1r	1G	1c	2e/
2C/	2E\	.	.	.	2g/
=184	=184	=184	=184	=184	=184
2F\	1D	0r	1A	1F	2f/
2D\	.	.	.	.	1a
2.E\	1C	.	2.c\	2r	.
.	.	.	.	[2G/	[2g/
4F\	.	.	4d\	.	.
=185	=185	=185	=185	=185	=185
1G	0r	1C	1e	2G/]	4g/]
.	.	.	.	.	4f/
.	.	.	.	2E/	4g/
.	.	.	.	.	4a/
2F\	.	1D	1d	2.F/	4b-\
.	.	.	.	.	4cc\
2BB-/	.	.	.	.	4dd\
.	.	.	.	4G/	4b-\
=186	=186	=186	=186	=186	=186
2AA/	2r	2.F/	1c	2.A/	2cc\
2.FF/	1c	.	.	.	2.a/
.	.	4G/	.	4G/	.
.	.	1A	1c	2F/	.
4GG/	.	.	.	.	4b-\
4AA/	2A\	.	.	2E/	4cc\
4FF/	.	.	.	.	4a/
=187	=187	=187	=187	=187	=187
4GG/	2d\	1G	1B-	2.D/	2b-\
4AA/	.	.	.	.	.
4BB-/	4c\	.	.	.	1dd
4C/	4B-\	.	.	4E/	.
1D	2A\	1F	1r	4F/	.
.	.	.	.	4G/	.
.	2F\	.	.	2A/	2dd\
=188	=188	=188	=188	=188	=188
1BB-	1B-	1F	1d	2D/	1dd
.	.	.	.	2d\	.
[1C	2r	1E	2e\	2.c\	2g/
.	2G\	.	[2g\	.	[2cc\
.	.	.	.	4B-\	.
=189	=189	=189	=189	=189	=189
1C]	2E\	1r	4g\]	2G/	4cc\]
.	.	.	4f\	.	4b-\
.	2C/	.	1e	2c\	2g/
1r	3G\V	1G	.	2.B-\	1b-
.	3A\	.	.	.	.
.	.	.	2d\	.	.
.	3B-\Z	.	.	.	.
.	.	.	.	4A/	.
=190	=190	=190	=190	=190	=190
2.FF/	2c\	2A/	1f	2.F/	1a
.	2.A\	2.c\	.	.	.
4GG/	.	.	.	4E/	.
2AA/	.	.	1e	2C/	1r
.	4G\	4B-\	.	.	.
2C/	2E\	[2A/	.	2c\	.
=191	=191	=191	=191	=191	=191
2.BB-/	2F\	2A/]	1d	2d\	2r
.	2.D\	2G/	.	2B-\	2.b-\
4AA/	.	.	.	.	.
2GG/	.	1B-	1r	1d	.
.	4C/	.	.	.	4a/
2BB-/	4D\	.	.	.	4f/
.	4E\	.	.	.	4g/
=192	=192	=192	=192	=192	=192
4FF/	1F	1A	0c	2c\	2a/
4GG/	.	.	.	.	.
4AA/	.	.	.	2.c\	2.f/
4BB-/	.	.	.	.	.
1C	2C/	1G	.	.	.
.	.	.	.	4B-\	8e/L
.	.	.	.	.	8d/J
.	[2c\	.	.	2G/	2e/
=193	=193	=193	=193	=193	=193
2FF/	4c\]	1r	1c	1A	1f
.	4B-\	.	.	.	.
4F\	4A\	.	.	.	.
4E\	4G\	.	.	.	.
4D\	4F\	[1F	1d	1B-	2r
4C/	4E\	.	.	.	.
[2BB-/	[2D\	.	.	.	2b-\
=194	=194	=194	=194	=194	=194
2BB-/]	2D\]	1F]	0f	2r	2b-\
4AA/	4C/	.	.	2F/	2b-\
4GG/	4BB-/	.	.	.	.
1FF	2.C/	1F	.	2A/	2a/
.	.	.	.	[2c\	2a/
.	4D\	.	.	.	.
=195	=195	=195	=195	=195	=195
1C	4E\	1G	1e	4c\]	1.g
.	4D\	.	.	4B-\	.
.	4E\	.	.	2.G/	.
.	4F\	.	.	.	.
1r	[1G	[1B-	[1d	.	.
.	.	.	.	4A/	.
.	.	.	.	[2B-\	4f/
.	.	.	.	.	4e/
=196	=196	=196	=196	=196	=196
1GG	1G]	1B-]	1d]	4B-\]	2d/
.	.	.	.	4A/	.
.	.	.	.	4G/	2.g/
.	.	.	.	4F/	.
2AA/	1C	1A	[1c	2E/	.
.	.	.	.	.	4f/
2FF/	.	.	.	2F/	[2f/
=197	=197	=197	=197	=197	=197
0C	1r	0G	1c]	1G	2f/]
.	.	.	.	.	4e/
.	.	.	.	.	4d/
.	1G	.	1r	[1c	1e
=198	=198	=198	=198	=198	=198
2r	1A	[0Fl	1c	2c\]	[0fl
2.F\	.	.	.	2.A/	.
.	2.D\	.	2d\	.	.
4E\	.	.	.	4G/	.
[2D\	.	.	[2f\	2F/	.
.	4E\	.	.	.	.
=199	=199	=199	=199	=199	=199
4D\]	2F\	0F_	2f\]	2A/	0f_
4C/	.	.	.	.	.
2AA/	2C/	.	2e\	2c\	.
1BB-	2.D\	.	1d	1B-	.
.	4E\	.	.	.	.
=200	=200	=200	=200	=200	=200
0FFl	1F	0F]	0cl	0Al	0f]
.	1Cl	.	.	.	.
==	==	==	==	==	==
*-	*-	*-	*-	*-	*-
!!!RDF**kern: l=long note in original notation
!!!RDF**kern: i=editorial accidental
!!!ENC:	Will Watson 14/09/2011
!!!END:	2011/09/14/
!!!EED:	Jesse Rodin
!!!EEV: 2012/04/24/
!!attribution-level@Jos: 4 (questionable)
!!!ONB:	Translated from MusicXML and edited on 2011/10/20/ by Craig Sapp
!!muse2ps: u^(2) @{OTL2} (3) @{OTL3}^C^@{COA}?\n@{SCT}^v96,96,96,96,96,130i2I150c85Q16
